flaticon/grooming/hair-straightener.svg

<svg xmlns="http://www.w3.org/2000/svg" width="32" height="32" viewBox="0 0 24 24">
    <path d="M 22.308594 17.222656 L 7.558594 2.476562 C 7.039062 1.953125 6.238281 1.953125 5.71875 2.476562 L 4.71875 3.476562 C 4.480469 3.714844 4.359375 3.996094 4.320312 4.316406 C 4.320312 4.515625 4.359375 4.753906 4.480469 4.953125 L 3.640625 6.515625 C 3.558594 6.636719 3.558594 6.796875 3.640625 6.914062 C 3.71875 7.035156 3.839844 7.113281 4 7.113281 L 6.28125 7.035156 L 6.519531 9.195312 C 6.558594 9.394531 6.679688 9.515625 6.878906 9.554688 L 9.121094 9.796875 L 9.359375 12.035156 C 9.398438 12.234375 9.519531 12.355469 9.71875 12.394531 L 11.839844 12.636719 L 11.601562 14.273438 C 11.601562 14.394531 11.601562 14.476562 11.71875 14.59375 C 11.839844 14.714844 11.960938 14.753906 12.078125 14.714844 L 13.878906 14.394531 L 16.976562 17.515625 L 14.238281 17.515625 L 13.558594 16.15625 C 13.519531 16.074219 13.398438 15.996094 13.28125 15.953125 C 13.121094 15.953125 13 15.996094 12.921875 16.074219 L 11.558594 17.433594 L 9.839844 16.074219 C 9.71875 15.953125 9.519531 15.953125 9.359375 16.074219 L 7.601562 17.476562 L 5.839844 16.074219 C 5.71875 15.953125 5.519531 15.953125 5.359375 16.074219 L 3.640625 17.433594 L 2.28125 16.074219 C 2.160156 15.996094 2.039062 15.914062 1.921875 15.953125 C 1.800781 15.953125 1.679688 16.035156 1.640625 16.15625 L 0.921875 17.554688 C 0.398438 17.675781 0 18.15625 0 18.796875 L 0 20.234375 C 0 20.953125 0.558594 21.515625 1.28125 21.515625 L 20.277344 21.515625 C 20.65625 21.765625 21.113281 21.914062 21.601562 21.914062 C 22.921875 21.914062 24 20.835938 24 19.515625 C 24 18.441406 23.285156 17.527344 22.308594 17.222656 Z M 14 13.59375 C 14 13.59375 13.960938 13.59375 13.921875 13.636719 L 12.480469 13.875 L 12.71875 12.394531 C 12.71875 12.273438 12.71875 12.15625 12.640625 12.074219 C 12.558594 11.996094 12.480469 11.914062 12.359375 11.914062 L 10.121094 11.675781 L 9.878906 9.433594 C 9.839844 9.234375 9.71875 9.113281 9.519531 9.074219 L 7.28125 8.835938 L 7.039062 6.59375 C 7.039062 6.394531 6.839844 6.234375 6.640625 6.234375 L 4.679688 6.316406 L 5.320312 5.113281 C 5.398438 4.953125 5.359375 4.753906 5.238281 4.636719 C 5.160156 4.554688 5.121094 4.476562 5.121094 4.355469 C 5.121094 4.234375 5.199219 4.113281 5.320312 3.996094 L 6.320312 2.996094 C 6.519531 2.796875 6.800781 2.796875 7 2.996094 L 21.09375 17.167969 C 20.375 17.324219 19.773438 17.804688 19.453125 18.449219 C 19.449219 18.457031 19.441406 18.464844 19.4375 18.476562 C 19.4375 18.480469 19.433594 18.480469 19.433594 18.484375 C 19.390625 18.574219 19.351562 18.664062 19.320312 18.753906 L 14.28125 13.714844 C 14.199219 13.636719 14.121094 13.59375 14 13.59375 Z M 1.28125 20.753906 C 1 20.753906 0.800781 20.554688 0.800781 20.273438 L 0.800781 18.835938 C 0.800781 18.636719 0.921875 18.355469 1.199219 18.355469 C 1.359375 18.355469 1.480469 18.234375 1.558594 18.113281 L 2.121094 16.996094 L 3.320312 18.195312 C 3.441406 18.355469 3.679688 18.355469 3.839844 18.234375 L 5.601562 16.835938 L 7.359375 18.234375 C 7.480469 18.355469 7.679688 18.355469 7.839844 18.234375 L 9.601562 16.835938 L 11.359375 18.234375 C 11.519531 18.355469 11.71875 18.355469 11.878906 18.195312 L 13.078125 16.996094 L 13.640625 18.113281 C 13.71875 18.273438 13.839844 18.355469 14 18.355469 L 17.679688 18.355469 L 19.199219 19.875 C 19.238281 20.195312 19.359375 20.476562 19.519531 20.753906 Z M 21.601562 21.113281 C 21.234375 21.113281 20.894531 20.988281 20.625 20.78125 C 20.285156 20.476562 20.058594 20.097656 20.007812 19.652344 C 20.003906 19.605469 20 19.5625 20 19.515625 C 20 19.449219 20.003906 19.386719 20.011719 19.328125 C 20.039062 19.285156 20.0625 19.242188 20.078125 19.195312 C 20.199219 18.480469 20.867188 17.925781 21.617188 17.914062 C 21.652344 17.914062 21.683594 17.917969 21.714844 17.917969 C 21.820312 17.929688 21.949219 17.960938 22.078125 17.996094 C 22.113281 18.011719 22.144531 18.019531 22.179688 18.023438 C 22.773438 18.257812 23.199219 18.839844 23.199219 19.515625 C 23.199219 20.394531 22.480469 21.113281 21.601562 21.113281 Z M 21.601562 21.113281"/>
</svg>

<svg xmlns="http://www.w3.org/2000/svg" width="32" height="32" viewBox="0 0 24 24">
    <path d="M22.309 17.223L7.559 2.477a1.274 1.274 0 0 0-1.84 0l-1 1c-.239.238-.36.52-.399.84 0 .199.04.437.16.636l-.84 1.563a.353.353 0 0 0 0 .398c.079.121.2.2.36.2l2.281-.079.239 2.16c.039.2.16.32.359.36l2.242.242.238 2.238c.04.2.16.32.36.36l2.12.242-.237 1.636c0 .122 0 .204.117.32.12.122.242.16.36.122l1.8-.32 3.098 3.12h-2.739l-.68-1.359c-.038-.082-.16-.16-.277-.203-.16 0-.281.043-.36.121l-1.362 1.36-1.72-1.36c-.12-.12-.32-.12-.48 0l-1.757 1.403-1.762-1.403c-.121-.12-.32-.12-.48 0l-1.72 1.36-1.359-1.36c-.12-.078-.242-.16-.36-.12a.302.302 0 0 0-.28.202l-.72 1.399c-.523.12-.921.601-.921 1.242v1.437c0 .72.559 1.282 1.281 1.282h18.996c.38.25.836.398 1.325.398A2.404 2.404 0 0 0 24 19.516a2.41 2.41 0 0 0-1.691-2.293zM14 13.593s-.04 0-.078.044l-1.442.238.239-1.48c0-.122 0-.239-.078-.32-.082-.079-.16-.16-.282-.16l-2.238-.24-.242-2.241a.423.423 0 0 0-.36-.36l-2.238-.238-.242-2.242c0-.2-.2-.36-.398-.36l-1.961.082.64-1.203a.42.42 0 0 0-.082-.476.371.371 0 0 1-.117-.282c0-.12.078-.242.2-.359l1-1c.199-.2.48-.2.679 0l14.094 14.172a2.41 2.41 0 0 0-1.64 1.281c-.005.008-.013.016-.017.028 0 .003-.003.003-.003.007a2.64 2.64 0 0 0-.114.27l-5.039-5.04a.375.375 0 0 0-.281-.12zm-12.719 7.16c-.281 0-.48-.198-.48-.48v-1.437c0-.2.12-.48.398-.48.16 0 .281-.122.36-.243l.562-1.117 1.2 1.2c.12.16.359.16.519.038l1.762-1.398 1.757 1.398c.121.121.32.121.48 0l1.763-1.398 1.757 1.398c.16.121.36.121.52-.039l1.2-1.199.562 1.117c.078.16.199.242.359.242h3.68l1.52 1.52c.038.32.16.602.32.879zm20.32.36c-.367 0-.706-.125-.976-.332-.34-.304-.566-.683-.617-1.129-.004-.047-.008-.09-.008-.136 0-.067.004-.13.012-.188a.603.603 0 0 0 .066-.133c.121-.715.79-1.27 1.54-1.28.034 0 .066.003.097.003.105.012.234.043.363.078a.328.328 0 0 0 .102.027c.593.235 1.02.817 1.02 1.493 0 .879-.72 1.597-1.598 1.597zm0 0"/>
</svg>
